Dominus_Funeral/22/apps/internet-mail.svg

<svg xmlns="http://www.w3.org/2000/svg" width="24" height="24" viewBox="0 0 6.35 6.35"><defs><linearGradient id="a"><stop offset="0"/><stop offset="1" stop-opacity="0"/></linearGradient></defs><path style="line-height:125%;-inkscape-font-specification:Ubuntu;text-align:center" d="M.5 1.07a1 1 0 0 0-.32.04.11.11 0 0 0-.06.04c-.03.06-.04.2-.05.37l3.16 1.91 3.05-1.84c0-.22-.02-.38-.05-.44a.12.12 0 0 0-.06-.04 1 1 0 0 0-.33-.04zm-.44.61v2.86c0 .38.02.58.06.66a.11.11 0 0 0 .06.04 1 1 0 0 0 .33.04h5.33a1 1 0 0 0 .33-.04.12.12 0 0 0 .06-.04 2 2 0 0 0 .06-.66V1.75l-3.06 2.2z" fill="#1a1a1a"/></svg>

<?xml version="1.0" encoding="UTF-8" standalone="no"?>
<svg
   xmlns:dc="http://purl.org/dc/elements/1.1/"
   xmlns:cc="http://creativecommons.org/ns#"
   xmlns:rdf="http://www.w3.org/1999/02/22-rdf-syntax-ns#"
   xmlns:svg="http://www.w3.org/2000/svg"
   xmlns="http://www.w3.org/2000/svg"
   xmlns:sodipodi="http://sodipodi.sourceforge.net/DTD/sodipodi-0.dtd"
   xmlns:inkscape="http://www.inkscape.org/namespaces/inkscape"
   width="24"
   height="24"
   viewBox="0 0 6.35 6.35"
   version="1.1"
   id="svg11"
   sodipodi:docname="internet-mail.svg"
   inkscape:version="0.92.4 (5da689c313, 2019-01-14)">
  <metadata
     id="metadata15">
    <rdf:RDF>
      <cc:Work
         rdf:about="">
        <dc:format>image/svg+xml</dc:format>
        <dc:type
           rdf:resource="http://purl.org/dc/dcmitype/StillImage" />
        <dc:title></dc:title>
      </cc:Work>
    </rdf:RDF>
  </metadata>
  <sodipodi:namedview
     pagecolor="#ffffff"
     bordercolor="#666666"
     borderopacity="1"
     objecttolerance="10"
     gridtolerance="10"
     guidetolerance="10"
     inkscape:pageopacity="0"
     inkscape:pageshadow="2"
     inkscape:window-width="1138"
     inkscape:window-height="480"
     id="namedview13"
     showgrid="false"
     inkscape:zoom="9.8333333"
     inkscape:cx="1.0677966"
     inkscape:cy="12"
     inkscape:window-x="0"
     inkscape:window-y="25"
     inkscape:window-maximized="0"
     inkscape:current-layer="svg11" />
  <defs
     id="defs7">
    <linearGradient
       id="a">
      <stop
         offset="0"
         id="stop2" />
      <stop
         offset="1"
         stop-opacity="0"
         id="stop4" />
    </linearGradient>
  </defs>
  <path
     style="line-height:125%;-inkscape-font-specification:Ubuntu;text-align:center;fill:#1a1a1a"
     d="M 0.5,1.07 A 1,1 0 0 0 0.18,1.11 0.11,0.11 0 0 0 0.12,1.15 C 0.09,1.21 0.08,1.35 0.07,1.52 L 3.23,3.43 6.28,1.59 C 6.28,1.37 6.26,1.21 6.23,1.15 A 0.12,0.12 0 0 0 6.17,1.11 1,1 0 0 0 5.84,1.07 Z M 0.06,1.68 v 2.86 c 0,0.38 0.02,0.58 0.06,0.66 A 0.11,0.11 0 0 0 0.18,5.24 1,1 0 0 0 0.51,5.28 H 5.84 A 1,1 0 0 0 6.17,5.24 0.12,0.12 0 0 0 6.23,5.2 2,2 0 0 0 6.29,4.54 V 1.75 l -3.06,2.2 z"
     id="path9"
     inkscape:connector-curvature="0" />
</svg>
